img/clip-add-file.svg

<svg width="16" height="16" fill="none" viewBox="0 0 16 16" xmlns="http://www.w3.org/2000/svg"><path d="m14.963 8.4582-0.9054-0.87055c-0.0504-0.04759-0.1315-0.04759-0.181 0l-5.733 5.5121c-1.2809 1.2316-3.3649 1.2316-4.6467 0-1.2809-1.2315-1.2809-3.2352 0-4.4668l6.3364-6.0922c0.78254-0.7524 2.0541-0.7524 2.8358 0 0.7825 0.75158 0.7825 1.9741 0 2.7265l-6.1478 5.9101c-0.28247 0.2724-0.74245 0.2724-1.0258 0-0.28247-0.2716-0.28161-0.713 8.6e-4 -0.9854l5.5445-5.33c0.0504-0.04759 0.0495-0.12636-8e-4 -0.17477l-0.9046-0.86973c-0.0512-0.04841-0.1315-0.04841-0.18095 0l-5.5445 5.33c-0.88155 0.84758-0.88155 2.2276 0 3.0752s2.317 0.8476 3.1985 0l6.1478-5.9101c1.3799-1.3276 1.3799-3.4888 0-4.8155-1.3816-1.3292-3.6286-1.3292-5.0094-8.2e-4l-6.3364 6.0914c-1.88 1.8084-1.8792 4.7499 0 6.5566 1.88 1.8076 4.9403 1.8076 6.8195 8e-4l5.7331-5.5121c0.0504-0.0484 0.0504-0.12635 0-0.17476z" clip-rule="evenodd" fill="#fff" fill-rule="evenodd"/><mask id="a" x="1" y="0" width="15" height="16" mask-type="alpha" maskUnits="userSpaceOnUse"><path d="m14.963 8.4582-0.9054-0.87055c-0.0504-0.04759-0.1315-0.04759-0.181 0l-5.733 5.5121c-1.2809 1.2316-3.3649 1.2316-4.6467 0-1.2809-1.2315-1.2809-3.2352 0-4.4668l6.3364-6.0922c0.78254-0.7524 2.0541-0.7524 2.8358 0 0.7825 0.75158 0.7825 1.9741 0 2.7265l-6.1478 5.9101c-0.28247 0.2724-0.74245 0.2724-1.0258 0-0.28247-0.2716-0.28161-0.713 8.6e-4 -0.9854l5.5445-5.33c0.0504-0.04759 0.0495-0.12636-8e-4 -0.17477l-0.9046-0.86973c-0.0512-0.04841-0.1315-0.04841-0.18095 0l-5.5445 5.33c-0.88155 0.84758-0.88155 2.2276 0 3.0752s2.317 0.8476 3.1985 0l6.1478-5.9101c1.3799-1.3276 1.3799-3.4888 0-4.8155-1.3816-1.3292-3.6286-1.3292-5.0094-8.2e-4l-6.3364 6.0914c-1.88 1.8084-1.8792 4.7499 0 6.5566 1.88 1.8076 4.9403 1.8076 6.8195 8e-4l5.7331-5.5121c0.0504-0.0484 0.0504-0.12635 0-0.17476z" clip-rule="evenodd" fill="#fff" fill-rule="evenodd"/></mask><g mask="url(#a)"><rect width="16" height="16" fill="#000" opacity=".5"/></g></svg>

<svg width="16" height="16" viewBox="0 0 16 16" fill="none" xmlns="http://www.w3.org/2000/svg">
<path fill-rule="evenodd" clip-rule="evenodd" d="M14.9626 8.45815L14.0572 7.5876C14.0068 7.54001 13.9257 7.54001 13.8762 7.5876L8.14315 13.0997C6.86221 14.3313 4.77823 14.3313 3.49643 13.0997C2.21549 11.8682 2.21549 9.86449 3.49643 8.63291L9.83286 2.54069C10.6154 1.78829 11.887 1.78829 12.6687 2.54069C13.4512 3.29227 13.4512 4.51482 12.6687 5.26722L6.52085 11.1773C6.23838 11.4497 5.7784 11.4497 5.49507 11.1773C5.2126 10.9057 5.21346 10.4643 5.49593 10.1919L11.0404 4.86189C11.0908 4.8143 11.0899 4.73553 11.0396 4.68712L10.135 3.81739C10.0838 3.76898 10.0035 3.76898 9.95405 3.81739L4.40956 9.14737C3.52801 9.99495 3.52801 11.375 4.40956 12.2226C5.29111 13.0702 6.72652 13.0702 7.60807 12.2226L13.7559 6.31254C15.1358 4.98496 15.1358 2.82376 13.7559 1.49701C12.3743 0.167799 10.1273 0.167799 8.7465 1.49619L2.41006 7.5876C0.530041 9.39598 0.530894 12.3375 2.41006 14.1442C4.29009 15.9518 7.35035 15.9518 9.22952 14.145L14.9626 8.63291C15.013 8.58451 15.013 8.50656 14.9626 8.45815Z" fill="white"/>
<mask id="mask0" mask-type="alpha" maskUnits="userSpaceOnUse" x="1" y="0" width="15" height="16">
<path fill-rule="evenodd" clip-rule="evenodd" d="M14.9626 8.45815L14.0572 7.5876C14.0068 7.54001 13.9257 7.54001 13.8762 7.5876L8.14315 13.0997C6.86221 14.3313 4.77823 14.3313 3.49643 13.0997C2.21549 11.8682 2.21549 9.86449 3.49643 8.63291L9.83286 2.54069C10.6154 1.78829 11.887 1.78829 12.6687 2.54069C13.4512 3.29227 13.4512 4.51482 12.6687 5.26722L6.52085 11.1773C6.23838 11.4497 5.7784 11.4497 5.49507 11.1773C5.2126 10.9057 5.21346 10.4643 5.49593 10.1919L11.0404 4.86189C11.0908 4.8143 11.0899 4.73553 11.0396 4.68712L10.135 3.81739C10.0838 3.76898 10.0035 3.76898 9.95405 3.81739L4.40956 9.14737C3.52801 9.99495 3.52801 11.375 4.40956 12.2226C5.29111 13.0702 6.72652 13.0702 7.60807 12.2226L13.7559 6.31254C15.1358 4.98496 15.1358 2.82376 13.7559 1.49701C12.3743 0.167799 10.1273 0.167799 8.7465 1.49619L2.41006 7.5876C0.530041 9.39598 0.530894 12.3375 2.41006 14.1442C4.29009 15.9518 7.35035 15.9518 9.22952 14.145L14.9626 8.63291C15.013 8.58451 15.013 8.50656 14.9626 8.45815Z" fill="white"/>
</mask>
<g mask="url(#mask0)">
<rect opacity="0.5" width="16" height="16" fill="black"/>
</g>
</svg>
